FINK
CUT[WIE LIEBLICH IST S HIENIEDEN]
REG[Europa, Mitteleuropa, Deutschland]
KEY[F0697  08 Bb 4/4]
MEL[-5_  3_.21_-7_  -7_-6_-5_
    -5_  1_1_2_2_  3__0_
    1_  4_.32_1_  -7_-6_-5_
    2_  3_3_2_2_  1__0_ //] >>
FCT[Geselligkeits -, Bundes - Lied]
